X: 3
T:Fanny Power
T:Planxty Fanny Powers
M:6/8
L:1/8
C:Turlough O'Carolan
S:Maire Ni Chathasaigh
Z:Nigel Gatherer
K:G
D| G2 D G>AB| c2 B A2 G| G>FE D>ED| F2 G A>Bc| B>AG B>cd|
e2 A A2 G| G>FE DGF | G4:||:
B| dB/c/d dB/c/d| GBG GBd|
ec/d/e ec/d/e| AcA A2c| B>cd e>fg| (3fga g d2c| B>AG A/B/cF| G2 G G2:|]
